suite-common/icons/assets/icons/placeholder.svg

<svg xmlns="http://www.w3.org/2000/svg" xml:space="preserve" fill="none" viewBox="0 0 24 24">
  <path fill="#000" fill-rule="evenodd" d="M11.2 2.281c-.829.078-1.79.29-2.001.439-.143.102-.279.382-.279.574 0 .166.088.404.192.519.197.218.551.279.968.167 1.007-.272 2.402-.301 3.478-.072.701.149.912.159 1.117.055a.74.74 0 0 0 .348-.902c-.131-.341-.348-.459-1.143-.62-.807-.164-1.931-.231-2.68-.16M5.34 4.954c-.437.211-1.428 1.48-1.977 2.535-.437.838-.832 1.976-.791 2.28a.745.745 0 0 0 .724.631c.427 0 .612-.177.807-.775.447-1.369 1.014-2.351 1.898-3.285.315-.333.371-.455.352-.761-.026-.402-.258-.641-.665-.683a.6.6 0 0 0-.348.058m12.766-.016c-.301.108-.466.356-.466.7 0 .257.072.398.359.702a8.2 8.2 0 0 1 1.819 3.06c.202.636.281.784.486.905a.747.747 0 0 0 1.079-.366c.089-.235.064-.403-.166-1.089-.428-1.28-1.216-2.589-2.133-3.544-.386-.402-.628-.492-.978-.368M3.143 13.609a.736.736 0 0 0-.57.792c.038.327.382 1.276.688 1.899.615 1.256 1.711 2.654 2.178 2.78a.72.72 0 0 0 .787-.265c.087-.113.114-.199.127-.394.019-.306-.037-.428-.352-.761a8.2 8.2 0 0 1-1.905-3.314 2.5 2.5 0 0 0-.172-.44c-.146-.236-.477-.362-.781-.297m17.257.036c-.228.09-.354.274-.503.73-.447 1.371-1.006 2.337-1.899 3.285-.314.334-.37.456-.351.761.013.195.04.281.127.394a.72.72 0 0 0 .784.265c.438-.117 1.5-1.44 2.099-2.612.444-.871.811-1.935.771-2.237a.8.8 0 0 0-.386-.55.92.92 0 0 0-.642-.036M9.31 20.041c-.438.237-.505.864-.128 1.195.382.336 2.237.594 3.498.487.955-.081 1.89-.279 2.121-.45.247-.182.343-.563.217-.863-.167-.402-.55-.537-1.098-.39-1.001.27-2.381.301-3.446.076-.691-.145-.974-.159-1.164-.055"/>
</svg>

<svg xmlns="http://www.w3.org/2000/svg" xml:space="preserve" fill="none" viewBox="0 0 24 24"><path d="M11.200 2.281 C 10.371 2.359,9.410 2.571,9.199 2.720 C 9.056 2.822,8.920 3.102,8.920 3.294 C 8.920 3.460,9.008 3.698,9.112 3.813 C 9.309 4.031,9.663 4.092,10.080 3.980 C 11.087 3.708,12.482 3.679,13.558 3.908 C 14.259 4.057,14.470 4.067,14.675 3.963 C 14.997 3.798,15.151 3.398,15.023 3.061 C 14.892 2.720,14.675 2.602,13.880 2.441 C 13.073 2.277,11.949 2.210,11.200 2.281 M5.340 4.954 C 4.903 5.165,3.912 6.434,3.363 7.489 C 2.926 8.327,2.531 9.465,2.572 9.769 C 2.619 10.120,2.940 10.400,3.296 10.400 C 3.723 10.400,3.908 10.223,4.103 9.625 C 4.550 8.256,5.117 7.274,6.001 6.340 C 6.316 6.007,6.372 5.885,6.353 5.579 C 6.327 5.177,6.095 4.938,5.688 4.896 C 5.553 4.882,5.455 4.899,5.340 4.954 M18.106 4.938 C 17.805 5.046,17.640 5.294,17.640 5.638 C 17.640 5.895,17.712 6.036,17.999 6.340 C 18.814 7.201,19.471 8.307,19.818 9.400 C 20.020 10.036,20.099 10.184,20.304 10.305 C 20.706 10.540,21.220 10.366,21.383 9.939 C 21.472 9.704,21.447 9.536,21.217 8.850 C 20.789 7.570,20.001 6.261,19.084 5.306 C 18.698 4.904,18.456 4.814,18.106 4.938 M3.143 13.609 C 2.785 13.684,2.530 14.039,2.573 14.401 C 2.611 14.728,2.955 15.677,3.261 16.300 C 3.876 17.556,4.972 18.954,5.439 19.080 C 5.743 19.162,6.038 19.062,6.226 18.815 C 6.313 18.702,6.340 18.616,6.353 18.421 C 6.372 18.115,6.316 17.993,6.001 17.660 C 5.119 16.728,4.475 15.608,4.096 14.346 C 4.044 14.174,3.967 13.976,3.924 13.906 C 3.778 13.670,3.447 13.544,3.143 13.609 M20.400 13.645 C 20.172 13.735,20.046 13.919,19.897 14.375 C 19.450 15.746,18.891 16.712,17.998 17.660 C 17.684 17.994,17.628 18.116,17.647 18.421 C 17.660 18.616,17.687 18.702,17.774 18.815 C 17.962 19.062,18.257 19.162,18.558 19.080 C 18.996 18.963,20.058 17.640,20.657 16.468 C 21.101 15.597,21.468 14.533,21.428 14.231 C 21.399 14.016,21.232 13.778,21.042 13.681 C 20.871 13.594,20.571 13.577,20.400 13.645 M9.310 20.041 C 8.872 20.278,8.805 20.905,9.182 21.236 C 9.564 21.572,11.419 21.830,12.680 21.723 C 13.635 21.642,14.570 21.444,14.801 21.273 C 15.048 21.091,15.144 20.710,15.018 20.410 C 14.851 20.008,14.468 19.873,13.920 20.020 C 12.919 20.290,11.539 20.321,10.474 20.096 C 9.783 19.951,9.500 19.937,9.310 20.041 " stroke="none" fill-rule="evenodd" fill="black"></path></svg>
